contributed-vectors/blade_player.svg

<svg width="192" height="192" viewBox="0 0 192 192" fill="none" xmlns="http://www.w3.org/2000/svg">
<path d="M174 32H18C12.48 32 8 36.48 8 42V150C8 155.52 12.48 160 18 160H174C179.52 160 184 155.52 184 150V42C184 36.48 179.52 32 174 32Z" fill="#54688C"/>
<path d="M80.6065 119.188C74.4575 119.188 68.5604 116.745 64.2125 112.397C59.8646 108.048 57.422 102.151 57.422 96.0022H57.395V67.3827L75.1465 49.6311V73.5224C76.9321 73.0711 78.7651 72.8342 80.6067 72.8167C86.7559 72.8167 92.6532 75.2595 97.0013 79.6076C101.349 83.9557 103.792 89.853 103.792 96.0022C103.792 102.151 101.35 108.048 97.0018 112.397C92.6539 116.745 86.7568 119.188 80.6078 119.188H80.6065ZM74.2414 107.151L93.7559 96.0001L74.2414 84.8489V107.151Z" fill="url(#paint0_linear_30_3)"/>
<path d="M119.198 72.8145C113.049 72.8147 107.152 75.2576 102.804 79.6057C98.4561 83.9539 96.0134 89.851 96.0135 96.0001H95.9865V124.62L113.738 142.371V118.48C115.524 118.931 117.357 119.168 119.198 119.186C122.243 119.186 125.258 118.586 128.071 117.421C130.884 116.256 133.44 114.548 135.593 112.395C137.746 110.242 139.454 107.686 140.619 104.873C141.784 102.06 142.384 99.0448 142.384 96.0001C142.384 89.851 139.941 83.9539 135.593 79.6057C131.245 75.2576 125.348 72.8147 119.199 72.8145H119.198ZM112.833 84.851L132.347 96.0022L112.833 107.153V84.851Z" fill="url(#paint1_linear_30_3)"/>
<defs>
<linearGradient id="paint0_linear_30_3" x1="57.3946" y1="84.4092" x2="103.792" y2="84.4092" gradientUnits="userSpaceOnUse">
<stop stop-color="white"/>
<stop offset="1" stop-color="#D8D8D8"/>
</linearGradient>
<linearGradient id="paint1_linear_30_3" x1="95.986" y1="107.593" x2="142.383" y2="107.593" gradientUnits="userSpaceOnUse">
<stop stop-color="white"/>
<stop offset="1" stop-color="#D8D8D8"/>
</linearGradient>
</defs>
</svg>

<svg xmlns="http://www.w3.org/2000/svg" width="192" height="192" fill="none"><path fill="#54688C" d="M174 32H18c-5.52 0-10 4.48-10 10v108c0 5.52 4.48 10 10 10h156c5.52 0 10-4.48 10-10V42c0-5.52-4.48-10-10-10Z"/><path fill="url(#a)" d="M80.606 119.188a23.185 23.185 0 0 1-23.184-23.186h-.027v-28.62l17.752-17.75v23.89a23.182 23.182 0 0 1 5.46-.705 23.185 23.185 0 0 1 0 46.371Zm-6.365-12.037 19.515-11.15L74.24 84.848v22.302Z"/><path fill="url(#b)" d="M119.198 72.814A23.185 23.185 0 0 0 96.014 96h-.027v28.62l17.751 17.751V118.48a23.23 23.23 0 0 0 5.46.706 23.19 23.19 0 0 0 21.421-14.313 23.19 23.19 0 0 0-5.026-25.267 23.185 23.185 0 0 0-16.394-6.791h-.001Zm-6.365 12.037 19.514 11.151-19.514 11.151V84.851Z"/><defs><linearGradient id="a" x1="57.395" x2="103.792" y1="84.409" y2="84.409" gradientUnits="userSpaceOnUse"><stop stop-color="#fff"/><stop offset="1" stop-color="#D8D8D8"/></linearGradient><linearGradient id="b" x1="95.986" x2="142.383" y1="107.593" y2="107.593" gradientUnits="userSpaceOnUse"><stop stop-color="#fff"/><stop offset="1" stop-color="#D8D8D8"/></linearGradient></defs></svg>
